X:367
T: "Der bucklichte Fiedler"
N: Z1047
O: Europa, Mitteleuropa, Deutschland, Westerwald
R: Romanze, Ballade
M: 4/4
L: 1/8
K: A
E2 | A2GGA2BB | =c2BAB2
E2 | A2GGA2BB | =c2BAB2
E=G | =c2cc=G2ze | edd=cB2z
B | =c2BAG2z
E | AGAB=cBAd | =cBAGA2

@@@ Tune index: 10125
